X: 1
T: Humours Of Scarriff, The
M: 4/4
L: 1/8
R: reel
K: Ddor
FAde f2ed|cAGc AcG2|Adde f2ed|cAGE EDD2|
Adde f2ed|cAGc AcG2|Adde f2ed|cAGE EDD2||
eccc acgc|ecgc eaa2|eccc acgc|edcd edd2|
eccc acgc|ecgc eaa2|a3g eged|cAGE EDD2||
